cartflows/admin-core/assets/images/plugins/suretriggers/trusted-brands/Mailchimp.svg

<svg width="117" height="24" viewBox="0 0 117 24" fill="none" xmlns="http://www.w3.org/2000/svg">
<path fill-rule="evenodd" clip-rule="evenodd" d="M17.3007 11.3455C17.4789 11.3247 17.6495 11.3236 17.8066 11.3455C17.8974 11.1407 17.9129 10.7878 17.8312 10.4036C17.71 9.83239 17.5456 9.48679 17.2061 9.54066C16.8665 9.59452 16.854 10.0084 16.9755 10.5793C17.0439 10.9007 17.1654 11.1753 17.3007 11.3455Z" fill="#4B5563"/>
<path fill-rule="evenodd" clip-rule="evenodd" d="M14.386 11.7938C14.6287 11.8986 14.7782 11.9682 14.8365 11.9074C14.8742 11.8696 14.8628 11.7973 14.8047 11.7042C14.6849 11.512 14.4383 11.3168 14.1766 11.2072C13.6417 10.9808 13.0035 11.056 12.5113 11.4037C12.3488 11.5208 12.1947 11.6829 12.2167 11.7813C12.2238 11.813 12.2482 11.837 12.3051 11.845C12.4391 11.86 12.9072 11.6274 13.4467 11.5949C13.8272 11.572 14.1427 11.689 14.3857 11.7938" fill="#4B5563"/>
<path fill-rule="evenodd" clip-rule="evenodd" d="M13.8973 12.0707C13.5808 12.1197 13.4064 12.2224 13.2944 12.3176C13.1989 12.3997 13.1398 12.4906 13.1403 12.5544C13.1406 12.5848 13.1539 12.6024 13.1645 12.6112C13.1788 12.6237 13.1959 12.6306 13.2165 12.6306C13.2879 12.6306 13.4482 12.5675 13.4482 12.5675C13.8884 12.4125 14.1788 12.4315 14.4666 12.4635C14.6256 12.4811 14.701 12.4907 14.7357 12.4371C14.746 12.4216 14.7585 12.3883 14.7267 12.3376C14.6527 12.2195 14.3332 12.0197 13.8976 12.0707" fill="#4B5563"/>
<path fill-rule="evenodd" clip-rule="evenodd" d="M16.3171 13.072C16.5319 13.1757 16.7684 13.1349 16.8455 12.9811C16.9225 12.8272 16.8107 12.6181 16.5959 12.5144C16.3811 12.4107 16.1446 12.4515 16.0676 12.6053C15.9905 12.7595 16.1023 12.9683 16.3171 13.072Z" fill="#4B5563"/>
<path fill-rule="evenodd" clip-rule="evenodd" d="M17.6976 11.8907C17.5232 11.8877 17.3784 12.076 17.3743 12.3115C17.3702 12.5469 17.5086 12.7397 17.6829 12.7427C17.8573 12.7456 18.0022 12.5573 18.0063 12.3219C18.0103 12.0867 17.872 11.8936 17.6976 11.8907Z" fill="#4B5563"/>
<path fill-rule="evenodd" clip-rule="evenodd" d="M5.97818 16.1293C5.93478 16.0757 5.86345 16.0919 5.79429 16.1079C5.74601 16.1191 5.69149 16.1314 5.63155 16.1306C5.50326 16.1282 5.3945 16.0743 5.33348 15.9821C5.25401 15.8621 5.25862 15.6831 5.34622 15.4783L5.38718 15.3866C5.52713 15.0778 5.7612 14.5613 5.49838 14.069C5.30039 13.6983 4.97763 13.4677 4.5895 13.4191C4.21684 13.3727 3.83332 13.5085 3.58868 13.7738C3.20272 14.1925 3.14224 14.7623 3.21682 14.9637C3.24422 15.0373 3.28707 15.0578 3.31799 15.0621C3.38363 15.0706 3.48073 15.0237 3.54148 14.8629L3.55884 14.8106C3.58596 14.7255 3.63641 14.5671 3.71913 14.4402C3.81895 14.2871 3.97409 14.1818 4.15635 14.1431C4.34187 14.1039 4.53173 14.1389 4.69067 14.2413C4.96108 14.4151 5.06523 14.741 4.94969 15.0517C4.89002 15.2125 4.79292 15.5199 4.81435 15.7725C4.85774 16.2837 5.17752 16.489 5.46475 16.5108C5.74411 16.5212 5.9394 16.3668 5.98876 16.2543C6.01778 16.1876 5.99337 16.1471 5.97737 16.1298" fill="#4B5563"/>
<path fill-rule="evenodd" clip-rule="evenodd" d="M8.63313 6.73978C9.54445 5.70459 10.666 4.8046 11.6709 4.29927C11.7056 4.28167 11.7425 4.31873 11.7238 4.35233C11.644 4.49447 11.4902 4.79873 11.4417 5.02939C11.4341 5.06539 11.474 5.09233 11.5049 5.0718C12.1301 4.65286 13.2174 4.2038 14.1713 4.1462C14.2123 4.1438 14.2321 4.19527 14.1995 4.22007C14.0544 4.3294 13.8957 4.48087 13.7799 4.63393C13.7601 4.66007 13.7788 4.6974 13.8119 4.69766C14.4816 4.70247 15.4257 4.93286 16.0411 5.27233C16.0826 5.29526 16.0531 5.37446 16.0064 5.36406C15.0753 5.15419 13.5513 4.995 11.9679 5.37473C10.5545 5.71366 9.47556 6.23712 8.68873 6.79979C8.64886 6.82832 8.60112 6.77659 8.6334 6.74005L8.63313 6.73978ZM13.1713 16.7696L13.1716 16.7701L13.1721 16.7712L13.1713 16.7696ZM16.9289 17.2056C16.956 17.1944 16.9744 17.1643 16.9714 17.1341C16.9676 17.0971 16.934 17.0701 16.8963 17.0739C16.8963 17.0739 14.9519 17.3568 13.1149 16.6957C13.315 16.0563 13.8469 16.2872 14.6511 16.3509C16.1005 16.436 17.3997 16.2277 18.3599 15.9568C19.1917 15.7221 20.2845 15.2592 21.1331 14.6005C21.4193 15.2187 21.5205 15.8992 21.5205 15.8992C21.5205 15.8992 21.7421 15.8603 21.9273 15.9723C22.1022 16.0781 22.2305 16.2981 22.1429 16.8672C21.9645 17.9301 21.505 18.7931 20.7325 19.5869C20.2622 20.0845 19.6916 20.517 19.0385 20.8317C18.6916 21.0109 18.3224 21.1658 17.9321 21.2909C15.0202 22.2261 12.0395 21.1981 11.0788 18.9907C11.002 18.8248 10.9372 18.6509 10.8862 18.4693C10.4769 17.0147 10.8244 15.2693 11.9109 14.1707V14.1702C11.9779 14.1003 12.0462 14.0179 12.0462 13.9142C12.0462 13.8275 11.9901 13.736 11.9416 13.671C11.5613 13.1288 10.2445 12.2051 10.5089 10.4174C10.6988 9.13311 11.8412 8.22858 12.9063 8.28218L13.1762 8.29738C13.6378 8.32431 14.0403 8.38245 14.4203 8.39818C15.0563 8.42538 15.6281 8.33444 16.3056 7.77951C16.534 7.59231 16.7173 7.42992 17.0273 7.37845C17.0599 7.37285 17.141 7.34432 17.3029 7.35179C17.4683 7.36059 17.6256 7.40512 17.767 7.49765C18.3099 7.85285 18.387 8.71338 18.4152 9.34271C18.4312 9.7019 18.4754 10.5712 18.4906 10.8208C18.525 11.3915 18.6777 11.4718 18.9864 11.5718C19.16 11.628 19.3211 11.6699 19.5587 11.7355C20.2774 11.9339 20.7035 12.1352 20.9723 12.3939C21.1326 12.5555 21.2072 12.7272 21.2302 12.891C21.3149 13.499 20.7502 14.2499 19.2549 14.9323C17.6205 15.6781 15.6376 15.8669 14.2676 15.7168L13.7875 15.6635C12.6918 15.5184 12.0666 16.9107 12.7243 17.8648C13.1482 18.4797 14.3028 18.8797 15.458 18.88C18.1065 18.8803 20.1424 17.7683 20.8996 16.808L20.9601 16.7232C20.9975 16.668 20.9666 16.6376 20.9202 16.6688C20.3016 17.0851 17.5535 18.7376 14.6139 18.2403C14.6139 18.2403 14.2567 18.1824 13.9307 18.0579C13.6717 17.9587 13.1293 17.7133 13.0633 17.1664C15.4355 17.8877 16.9291 17.2059 16.9291 17.2059L16.9289 17.2056ZM3.89941 11.663C3.07434 11.8206 2.34718 12.2803 1.90264 12.9155C1.63684 12.6976 1.14185 12.2758 1.05425 12.1112C0.344445 10.7859 1.82887 8.20938 2.86604 6.75418C5.42913 3.1582 9.44328 0.436352 11.3015 0.930216C11.6036 1.01422 12.6042 2.15474 12.6042 2.15474C12.6042 2.15474 10.7465 3.16807 9.02397 4.5806C6.70281 6.33765 4.94987 8.89151 3.89941 11.663ZM5.28565 17.7443C5.16089 17.7653 5.03341 17.7736 4.90485 17.7704C3.66345 17.7376 2.32277 16.6389 2.1896 15.336C2.04232 13.8958 2.79091 12.7875 4.11612 12.5246C4.27452 12.4931 4.466 12.475 4.67241 12.4856C5.41502 12.5256 6.50915 13.0862 6.75895 14.6765C6.98028 16.0851 6.62876 17.5189 5.28565 17.744V17.7443ZM22.1006 15.1939C22.09 15.1568 22.0206 14.908 21.9254 14.608C21.8302 14.3077 21.7317 14.0968 21.7317 14.0968C22.1136 13.535 22.1204 13.0323 22.0694 12.7478C22.0152 12.395 21.8657 12.0944 21.5647 11.7835C21.2636 11.4728 20.6476 11.1544 19.7822 10.9155L19.3281 10.7915C19.326 10.7731 19.3043 9.73897 19.2847 9.29497C19.2704 8.97391 19.2424 8.47284 19.0843 7.97951C18.8958 7.31152 18.5676 6.72699 18.1578 6.35312C19.2888 5.20059 19.9948 3.93073 19.9929 2.84167C19.9897 0.747017 17.3731 0.113156 14.1485 1.42595L13.4653 1.71101C13.4623 1.70808 12.2301 0.519554 12.2117 0.503554C8.53522 -2.64923 -2.95937 9.91257 0.715483 12.9635L1.51859 13.6326C1.31028 14.1632 1.22837 14.7712 1.29537 15.4248C1.38107 16.2645 1.82155 17.0693 2.53569 17.6912C3.21348 18.2816 4.10473 18.6555 4.9694 18.6547C6.39958 21.8949 9.66732 23.8826 13.4987 23.9946C17.6086 24.1146 21.0586 22.2186 22.5042 18.8128C22.5989 18.5739 23 17.4968 23 16.5459C23 15.5904 22.4505 15.1944 22.1006 15.1944" fill="#4B5563"/>
<path fill-rule="evenodd" clip-rule="evenodd" d="M49.3749 14.8686C48.5049 15.0703 48.0549 14.8012 48.0549 14.2219C48.0549 13.4282 48.8713 13.1104 50.0376 13.1104C50.5506 13.1104 51.0345 13.155 51.0345 13.155C51.0345 13.4948 50.3 14.6541 49.3749 14.8686ZM50.2602 6.92188C47.4752 6.92188 45.4758 7.95137 45.4758 7.95137V10.9777C45.4758 10.9777 47.6833 9.702 49.4743 9.702C50.9031 9.702 51.0788 10.477 51.0141 11.1199C51.0141 11.1199 50.6016 11.0103 49.3441 11.0103C46.3796 11.0103 44.8839 12.3646 44.8839 14.5359C44.8839 16.5956 46.565 17.4563 47.9819 17.4563C50.0488 17.4563 50.9578 16.0597 51.2367 15.3973C51.4306 14.9378 51.4664 14.6279 51.6399 14.6279C51.839 14.6279 51.772 14.8502 51.762 15.3075C51.7456 16.1087 51.7836 16.7142 51.9098 17.2247H54.6508V12.2684C54.6508 9.17396 53.5615 6.92188 50.2602 6.92188Z" fill="#4B5563"/>
<path fill-rule="evenodd" clip-rule="evenodd" d="M68.3008 12.1903C68.3008 11.2851 69.138 10.4606 70.6748 10.4606C72.3489 10.4606 73.6961 11.2712 73.998 11.4553V7.95183C73.998 7.95183 72.9341 6.92196 70.3189 6.92196C67.5622 6.92196 65.2664 8.54348 65.2664 12.0339C65.2664 15.5239 67.35 17.4594 70.3114 17.4594C72.6251 17.4594 74.004 16.1814 74.004 16.1814V12.8542C73.5677 13.0993 72.3522 13.9477 70.6915 13.9477C68.9333 13.9477 68.3012 13.1345 68.3012 12.1907L68.3008 12.1903ZM31.6655 7.15136C31.6658 7.1536 31.8404 7.90655 31.6104 8.89114C31.4931 9.39185 31.2776 9.81772 31.5378 9.81772C31.7172 9.81772 31.7176 9.66803 31.951 9.13139C32.2924 8.34701 33.012 6.91934 34.6935 6.91934C36.2921 6.91934 37.0452 7.8957 37.2946 8.80993C37.4845 9.5045 37.3184 9.81772 37.55 9.81772C37.7145 9.81772 37.7715 9.45734 37.974 9.00153C38.3377 8.18497 39.1288 6.91934 40.7288 6.91934C43.143 6.91934 44.0647 8.67184 44.0647 11.3008V17.2244H40.4783V11.7633C40.4783 10.8528 40.332 9.96966 39.5063 9.96966C38.7413 9.96966 38.3846 11.3326 38.3846 12.2124V17.2266H34.7322V11.7637C34.7322 10.5987 34.5688 9.97003 33.7543 9.97003C33.0492 9.97003 32.6378 11.2241 32.6378 12.2128V17.2248H29V7.15136H31.6651H31.6655ZM55.8446 7.16521C55.846 7.16596 56.4651 7.52484 57.6668 7.52484C58.8708 7.52484 59.482 7.16521 59.482 7.16521V17.227H55.8446V7.16521ZM85.8754 7.16521C85.8769 7.16596 86.496 7.52484 87.698 7.52484C88.9016 7.52484 89.5132 7.16521 89.5132 7.16521V17.227H85.8754V7.16521ZM64.297 4.10179V17.227H60.6592V4.10179H64.297ZM78.3212 4.10179C78.3216 4.10291 78.472 4.48013 78.472 5.60206C78.472 7.25876 78.1135 8.6071 77.9441 9.12091C77.8544 9.39297 77.6943 9.81286 77.924 9.82034C78.0566 9.82446 78.1362 9.62387 78.2985 9.27584C78.4601 8.92744 79.2612 6.92159 81.3668 6.92159C84.2672 6.92159 84.6938 9.30915 84.6938 11.8947V17.2266H81.056V11.6758C81.056 10.5374 80.8184 9.9719 80.0594 9.9719C79.1428 9.9719 78.819 11.3985 78.819 12.215V17.2266H75.1811V4.10142H78.3216L78.3212 4.10179ZM93.4076 7.15136C93.4079 7.1536 93.5826 7.90655 93.3525 8.89114C93.2352 9.39185 93.0197 9.81772 93.2799 9.81772C93.4593 9.81772 93.4597 9.66803 93.6931 9.13139C94.0341 8.34701 94.7541 6.91934 96.4356 6.91934C98.1071 6.91934 98.7702 7.90019 99.0367 8.80993C99.2154 9.41955 99.0605 9.81772 99.2921 9.81772C99.4566 9.81772 99.5136 9.45734 99.7161 9.00153C100.079 8.18497 100.871 6.91934 102.471 6.91934C104.885 6.91934 105.807 8.67184 105.807 11.3008V17.2244H102.22V11.7633C102.22 10.8528 102.074 9.96966 101.248 9.96966C100.483 9.96966 100.126 11.3326 100.126 12.2124V17.2266H96.474V11.7637C96.474 10.5987 96.3113 9.97003 95.4964 9.97003C94.7913 9.97003 94.38 11.2241 94.38 12.2128V17.2248H90.7421V7.15136H93.4072H93.4076ZM57.6523 4C56.4231 4 55.4257 4.65415 55.4257 5.46098C55.4257 6.26781 56.4227 6.92196 57.6523 6.92196C58.8823 6.92196 59.8792 6.26781 59.8792 5.46098C59.8792 4.65415 58.8827 4 57.6523 4ZM87.6835 4C86.4539 4 85.4566 4.65415 85.4566 5.46098C85.4566 6.26781 86.4535 6.92196 87.6835 6.92196C88.9131 6.92196 89.9105 6.26781 89.9105 5.46098C89.9105 4.65415 88.9135 4 87.6835 4Z" fill="#4B5563"/>
<path fill-rule="evenodd" clip-rule="evenodd" d="M112.004 15.0585C111.17 15.0585 110.556 13.9953 110.556 12.5138C110.556 11.0749 111.186 9.96978 111.975 9.96978C112.987 9.96978 113.418 10.9027 113.418 12.5138C113.418 14.1899 113.02 15.0585 112.004 15.0585ZM113.002 6.91797C111.133 6.91797 110.275 8.32693 109.903 9.12965C109.657 9.65992 109.67 9.81598 109.49 9.81598C109.23 9.81598 109.446 9.39011 109.563 8.88939C109.794 7.90331 109.618 7.14999 109.618 7.14999H106.954V20.002H110.591V15.9275C111.021 16.6613 111.818 17.4453 113.046 17.4453C115.677 17.4453 117 15.2086 117 12.1867C117 8.76178 115.416 6.91797 113.003 6.91797" fill="#4B5563"/>
</svg>

<svg width="117" height="24" fill="none" xmlns="http://www.w3.org/2000/svg"><path fill-rule="evenodd" clip-rule="evenodd" d="M17.3 11.345c.179-.02.35-.021.507 0 .09-.204.106-.557.024-.941-.121-.572-.285-.917-.625-.863-.34.054-.352.467-.23 1.038.068.322.19.596.325.766ZM14.386 11.794c.243.105.392.174.45.113.038-.037.027-.11-.031-.203-.12-.192-.367-.387-.628-.497a1.737 1.737 0 0 0-1.666.197c-.162.117-.316.279-.294.377.007.032.031.056.088.064.134.015.602-.218 1.142-.25.38-.023.696.094.939.199M13.897 12.07c-.316.05-.49.152-.603.248-.095.082-.154.173-.154.236 0 .03.014.048.024.057.015.013.032.02.053.02.07 0 .231-.063.231-.063a2.05 2.05 0 0 1 1.019-.104c.159.017.234.027.269-.027.01-.015.022-.049-.01-.1-.073-.117-.393-.317-.828-.266M16.317 13.072c.215.104.451.063.529-.09.076-.155-.035-.364-.25-.468-.215-.103-.451-.063-.528.091-.078.154.034.363.25.467ZM17.698 11.89c-.175-.002-.32.186-.324.421-.004.236.135.429.309.432.174.003.32-.186.323-.421.004-.235-.134-.428-.308-.431ZM5.978 16.13c-.043-.054-.115-.038-.184-.022a.668.668 0 0 1-.162.023.355.355 0 0 1-.299-.149c-.079-.12-.074-.299.013-.504l.041-.091c.14-.31.374-.826.111-1.318-.198-.37-.52-.601-.909-.65a1.18 1.18 0 0 0-1 .355c-.386.419-.447.988-.372 1.19.027.073.07.094.101.098.066.009.163-.038.223-.2l.018-.051c.027-.085.077-.244.16-.37a.71.71 0 0 1 .972-.199c.27.173.374.499.259.81-.06.16-.157.468-.136.72.044.512.364.717.65.739.28.01.475-.144.525-.257.029-.066.004-.107-.012-.124" fill="#4B5563"/><path fill-rule="evenodd" clip-rule="evenodd" d="M8.633 6.74c.911-1.035 2.033-1.935 3.038-2.44.035-.018.072.019.053.052-.08.142-.234.447-.282.677a.041.041 0 0 0 .063.043c.625-.42 1.712-.868 2.666-.926.041-.002.061.05.029.074-.146.11-.304.26-.42.414a.04.04 0 0 0 .032.064c.67.004 1.614.235 2.23.574.04.023.011.102-.036.092-.93-.21-2.455-.369-4.038.01-1.413.34-2.492.863-3.28 1.426-.04.028-.087-.023-.055-.06Zm4.538 10.03.001.001v-.001Zm3.758.436a.071.071 0 0 0 .042-.072.068.068 0 0 0-.075-.06s-1.944.283-3.781-.378c.2-.64.732-.409 1.536-.345 1.45.085 2.749-.123 3.709-.394.832-.235 1.925-.698 2.773-1.357.286.619.387 1.3.387 1.3s.222-.04.407.072c.175.106.303.326.216.895-.178 1.063-.638 1.926-1.41 2.72a5.81 5.81 0 0 1-1.695 1.245c-.346.179-.716.334-1.106.459-2.912.935-5.892-.093-6.853-2.3a3.48 3.48 0 0 1-.193-.522c-.41-1.454-.062-3.2 1.025-4.298.067-.07.135-.153.135-.257 0-.086-.056-.178-.104-.243-.38-.542-1.697-1.466-1.433-3.254.19-1.284 1.332-2.188 2.397-2.135l.27.015c.462.027.864.085 1.244.101.636.027 1.208-.064 1.886-.618.228-.188.411-.35.721-.402.033-.005.114-.034.276-.026a.922.922 0 0 1 .464.146c.543.355.62 1.215.648 1.845.016.359.06 1.228.076 1.478.034.57.187.65.495.75.174.057.335.099.573.165.718.198 1.144.4 1.413.658.16.162.235.333.258.497.085.608-.48 1.359-1.975 2.041-1.634.746-3.617.935-4.987.785l-.48-.053c-1.096-.146-1.721 1.247-1.064 2.2.424.616 1.579 1.016 2.734 1.016 2.649 0 4.684-1.112 5.442-2.072l.06-.085c.037-.055.007-.085-.04-.054-.618.416-3.367 2.069-6.306 1.571 0 0-.357-.058-.683-.182-.26-.1-.802-.345-.868-.892 2.372.722 3.866.04 3.866.04Zm-13.03-5.543c-.825.158-1.552.617-1.996 1.252-.266-.217-.761-.64-.849-.804-.71-1.325.775-3.902 1.812-5.357C5.429 3.158 9.443.436 11.302.93c.302.084 1.302 1.225 1.302 1.225s-1.857 1.013-3.58 2.426C6.703 6.338 4.95 8.89 3.899 11.663Zm1.387 6.081c-.125.021-.253.03-.381.026-1.242-.032-2.582-1.131-2.715-2.434-.148-1.44.6-2.549 1.926-2.811.159-.032.35-.05.556-.04.743.04 1.837.601 2.087 2.192.221 1.408-.13 2.842-1.473 3.067Zm16.815-2.55c-.011-.037-.08-.286-.176-.586-.095-.3-.193-.511-.193-.511.382-.562.388-1.065.337-1.35-.054-.352-.203-.653-.504-.963-.301-.311-.917-.63-1.783-.869l-.454-.123c-.002-.019-.024-1.053-.043-1.497-.015-.321-.043-.822-.2-1.315-.19-.668-.517-1.253-.927-1.627 1.13-1.152 1.837-2.422 1.835-3.511-.003-2.095-2.62-2.729-5.844-1.416l-.684.285A795.15 795.15 0 0 0 12.212.504C8.535-2.65-2.96 9.913.715 12.964l.804.669a3.82 3.82 0 0 0-.224 1.792c.086.84.527 1.644 1.24 2.266.678.59 1.57.965 2.434.964 1.43 3.24 4.698 5.228 8.53 5.34 4.11.12 7.56-1.776 9.005-5.182.095-.24.496-1.316.496-2.267 0-.956-.55-1.352-.9-1.352M49.375 14.869c-.87.201-1.32-.068-1.32-.647 0-.794.816-1.112 1.983-1.112.513 0 .997.045.997.045 0 .34-.735 1.5-1.66 1.714Zm.885-7.947c-2.785 0-4.784 1.03-4.784 1.03v3.026s2.207-1.276 3.998-1.276c1.43 0 1.605.775 1.54 1.418 0 0-.412-.11-1.67-.11-2.964 0-4.46 1.355-4.46 3.526 0 2.06 1.681 2.92 3.098 2.92 2.067 0 2.976-1.396 3.255-2.059.194-.46.23-.77.403-.77.199 0 .132.223.122.68-.016.802.022 1.407.148 1.918h2.74v-4.957c0-3.094-1.088-5.346-4.39-5.346ZM68.3 12.19c0-.905.838-1.73 2.375-1.73 1.674 0 3.021.811 3.323.995V7.952s-1.064-1.03-3.68-1.03c-2.756 0-5.052 1.621-5.052 5.112 0 3.49 2.084 5.425 5.045 5.425 2.314 0 3.693-1.278 3.693-1.278v-3.327c-.436.245-1.652 1.094-3.313 1.094-1.758 0-2.39-.814-2.39-1.757ZM31.667 7.151c0 .003.174.756-.056 1.74-.117.5-.332.927-.072.927.18 0 .18-.15.413-.687.341-.784 1.061-2.212 2.742-2.212 1.6 0 2.352.977 2.602 1.89.19.696.023 1.009.255 1.009.165 0 .222-.36.424-.816.364-.817 1.155-2.083 2.755-2.083 2.414 0 3.336 1.753 3.336 4.382v5.923h-3.587v-5.46c0-.911-.146-1.794-.972-1.794-.765 0-1.121 1.363-1.121 2.242v5.015h-3.653v-5.463c0-1.165-.163-1.794-.978-1.794-.705 0-1.116 1.254-1.116 2.243v5.012H29V7.15h2.665Zm24.179.014c.001.001.62.36 1.822.36 1.204 0 1.815-.36 1.815-.36v10.062h-3.637V7.165Zm30.03 0c.002.001.621.36 1.823.36 1.204 0 1.815-.36 1.815-.36v10.062h-3.638V7.165ZM64.297 4.102v13.125h-3.638V4.102h3.638Zm14.024 0s.151.378.151 1.5c0 1.657-.358 3.005-.528 3.519-.09.272-.25.692-.02.7.133.003.212-.197.374-.545.162-.349.963-2.354 3.069-2.354 2.9 0 3.327 2.387 3.327 4.973v5.332h-3.638v-5.551c0-1.139-.238-1.704-.997-1.704-.916 0-1.24 1.427-1.24 2.243v5.012h-3.638V4.1h3.14Zm15.087 3.05c0 .002.175.755-.055 1.74-.118.5-.333.926-.073.926.18 0 .18-.15.413-.687.341-.784 1.061-2.212 2.743-2.212 1.671 0 2.334.981 2.6 1.89.18.61.025 1.009.256 1.009.165 0 .222-.36.424-.816.363-.817 1.155-2.083 2.755-2.083 2.414 0 3.336 1.753 3.336 4.382v5.923h-3.587v-5.46c0-.911-.146-1.794-.972-1.794-.765 0-1.122 1.363-1.122 2.242v5.015h-3.652v-5.463c0-1.165-.163-1.794-.978-1.794-.705 0-1.116 1.254-1.116 2.243v5.012h-3.638V7.15h2.665ZM57.652 4c-1.229 0-2.226.654-2.226 1.461s.997 1.461 2.226 1.461c1.23 0 2.227-.654 2.227-1.461S58.883 4 57.652 4Zm30.031 0c-1.23 0-2.226.654-2.226 1.461s.997 1.461 2.227 1.461 2.227-.654 2.227-1.461S88.912 4 87.683 4ZM112.004 15.059c-.834 0-1.448-1.064-1.448-2.545 0-1.44.63-2.544 1.419-2.544 1.012 0 1.443.933 1.443 2.544 0 1.676-.398 2.545-1.414 2.545Zm.998-8.141c-1.869 0-2.727 1.409-3.099 2.212-.246.53-.233.686-.413.686-.26 0-.044-.426.073-.927.231-.986.055-1.739.055-1.739h-2.664v12.852h3.637v-4.074c.43.733 1.227 1.517 2.455 1.517 2.631 0 3.954-2.236 3.954-5.258 0-3.425-1.584-5.269-3.997-5.269" fill="#4B5563"/></svg>
